X:1
T:Title
%%score { ( 1 3 ) | ( 2 4 5 ) }
L:1/8
M:4/4
K:Bb
V:1 treble nm="Grand Piano"
V:3 treble 
V:2 bass 
V:4 bass 
V:5 bass 
V:1
 z4 z2[Q:1/4=100] [DF]>[DF] | z/ B3/2 z2 A2 G2 | [EG]2 [DF]2 [DF]4 | A2 A2 z4 | %4
 [Ec]2 [DB]2 [DB]2 [DF]>[DF] |[M:2/4] [DB]<[DB] [DB]>[DB] | A2 G2 | %7
[M:4/4] [EG]2 [DF]2 [DF]2 [FB]2 | c2 G2 A2 F2 | [DB]6 z2 | [Fc]4 [FB]2 c2 | d4 B2 z2 | c4 B2 A2 | %13
 [DB]4 [DF]2 z2 | [B,GB]2 [B,GB]2 [FA]2 .[G,EG]2 | [EG]2 [DF]2 [DF]2 [FB]2 | c2 G2 A2 F2 | %17
[M:3/4] [DB]6 |] %18
V:2
 z4 z2 [B,,B,]>[B,,B,] | z/ D3/2 z2 z4 | [B,,B,]2 [B,,B,]2 [B,,B,]4 | %3
 [F,E]2 .[F,A,E]2 [F,CE]2 [F,A,E]2 | [B,,F,]2 [B,,B,]2 [B,,B,]2 [B,,B,]>[B,,B,] | %5
[M:2/4] [B,,F,]<[B,,F,] [B,,F,]>[B,,F,] | [E,E]2 .[E,G,E]2 | %7
[M:4/4] [B,,B,]2 [B,,B,]2 [B,,B,]2 [D,B,]2 | [E,G,E]2 [E,CE]2 [F,E]2 [F,A,E]2 | [B,,B,]6 z2 | %10
 [F,A,]4 [D,B,]2[K:treble] [F,A,F]2 | [B,F]4 [B,D]2 z2 | [F,A,E]4 [F,B,D]2 [F,C]2 | %13
 [B,,B,]4 [B,,B,]2 z2 | E,2 E,2 z F, z A, | [B,,B,]2 [B,,B,]2 [B,,B,]2 [D,B,]2 | %16
 [E,G,E]2 [E,CE]2 [F,E]2 [F,A,E]2 |[M:3/4] [B,,B,]6 |] %18
V:3
 x8 | .[DB]>F, [DB]>[DB] z F, z A, | x8 | z G, z B, A2 c2 | x8 |[M:2/4] x4 | z F, z A, | %7
[M:4/4] x8 | x8 | x8 | x8 | x8 | x8 | x8 | x8 | x8 | x8 |[M:3/4] x6 |] %18
V:4
 x8 | z z/ B,,/ [B,,F,]>[B,,F,] [E,E]2 .[E,G,E]2 | x8 | x8 | x8 |[M:2/4] x4 | x4 |[M:4/4] x8 | x8 | %9
 x8 | x6[K:treble] x2 | x8 | x8 | x8 | z4 E,2 E,2 | x8 | x8 |[M:3/4] x6 |] %18
V:5
 x8 | [B,,F,]2 z2 z4 | x8 | x8 | x8 |[M:2/4] x4 | x4 |[M:4/4] x8 | x8 | x8 | x6[K:treble] x2 | x8 | %12
 x8 | x8 | x8 | x8 | x8 |[M:3/4] x6 |] %18

